icons/server-24.svg

<svg xmlns="http://www.w3.org/2000/svg" width="24" height="24" viewBox="0 0 24 24"><path d="M10.75 6.5a.75.75 0 000 1.5h6.5a.75.75 0 000-1.5h-6.5zM6 7.25a.75.75 0 01.75-.75h.5a.75.75 0 010 1.5h-.5A.75.75 0 016 7.25zm4 9a.75.75 0 01.75-.75h6.5a.75.75 0 010 1.5h-6.5a.75.75 0 01-.75-.75zm-3.25-.75a.75.75 0 000 1.5h.5a.75.75 0 000-1.5h-.5z"/><path fill-rule="evenodd" d="M3.25 2A1.75 1.75 0 001.5 3.75v7c0 .372.116.716.314 1a1.742 1.742 0 00-.314 1v7c0 .966.784 1.75 1.75 1.75h17.5a1.75 1.75 0 001.75-1.75v-7c0-.372-.116-.716-.314-1 .198-.284.314-.628.314-1v-7A1.75 1.75 0 0020.75 2H3.25zm0 9h17.5a.25.25 0 00.25-.25v-7a.25.25 0 00-.25-.25H3.25a.25.25 0 00-.25.25v7c0 .138.112.25.25.25zm0 1.5a.25.25 0 00-.25.25v7c0 .138.112.25.25.25h17.5a.25.25 0 00.25-.25v-7a.25.25 0 00-.25-.25H3.25z"/></svg>

<svg xmlns="http://www.w3.org/2000/svg" width="24" height="24" viewBox="0 0 24 24">
  <defs/>
  <path d="M10.75,6.5 A0.75 0.75 0 0 0 10.75,8 L17.25,8 A0.75 0.75 0 0 0 17.25,6.5 L10.75,6.5 Z M6,7.25 A0.75 0.75 0 0 1 6.75,6.5 L7.25,6.5 A0.75 0.75 0 0 1 7.25,8 L6.75,8 A0.75 0.75 0 0 1 6,7.25 Z M10,16.25 A0.75 0.75 0 0 1 10.75,15.5 L17.25,15.5 A0.75 0.75 0 0 1 17.25,17 L10.75,17 A0.75 0.75 0 0 1 10,16.25 Z M6.75,15.5 A0.75 0.75 0 0 0 6.75,17 L7.25,17 A0.75 0.75 0 0 0 7.25,15.5 L6.75,15.5 Z"/>
  <path d="M3.25,2 L20.75,2 C21.716,2 22.5,2.784 22.5,3.75 L22.5,10.75 C22.5,11.122 22.384,11.466 22.186,11.75 C22.384,12.034 22.5,12.378 22.5,12.75 L22.5,19.75 C22.5,20.716 21.716,21.5 20.75,21.5 L3.25,21.5 C2.284,21.5 1.5,20.716 1.5,19.75 L1.5,12.75 C1.5,12.392 1.609,12.043 1.814,11.75 C1.616,11.466 1.5,11.122 1.5,10.75 L1.5,3.75 C1.5,2.784 2.284,2 3.25,2 Z M3.25,12.5 C3.112,12.5 3,12.612 3,12.75 L3,19.75 C3,19.888 3.112,20 3.25,20 L20.75,20 C20.888,20 21,19.888 21,19.75 L21,12.75 C21,12.612 20.888,12.5 20.75,12.5 Z M3.25,11 L20.75,11 C20.888,11 21,10.888 21,10.75 L21,3.75 C21,3.612 20.888,3.5 20.75,3.5 L3.25,3.5 C3.112,3.5 3,3.612 3,3.75 L3,10.75 C3,10.888 3.112,11 3.25,11 Z"/>
</svg>
